assets/svg/icon-ui-heartrate-white.svg

<?xml version="1.0" encoding="UTF-8" standalone="no"?>
<svg width="34px" height="32px" viewBox="0 0 34 32" version="1.1" xmlns="http://www.w3.org/2000/svg" xmlns:xlink="http://www.w3.org/1999/xlink">
    <!-- Generator: Sketch 3.8.3 (29802) - http://www.bohemiancoding.com/sketch -->
    <title>white/icon-ui-heartrate-white</title>
    <desc>Created with Sketch.</desc>
    <defs></defs>
    <g id="white" stroke="none" stroke-width="1" fill="none" fill-rule="evenodd">
        <g id="icons,-utility-white" transform="translate(-692.000000, -237.000000)" fill="#FFFFFF">
            <g id="white/icon-ui-heartrate-white" transform="translate(692.000000, 237.000000)">
                <g id="Y-3">
                    <g id="PaaS">
                        <g id="hl7">
                            <g id="Lead-Section">
                                <g id="VPN">
                                    <path d="M16.2068255,9.79122844 C16.4889281,9.0335385 16.8876748,9.04475907 17.1016161,9.83160973 L22.9444143,31.3207158 C23.1564909,32.1007078 23.536586,32.10941 23.7916348,31.3453825 L28.5256844,17.1640031 C28.7815148,16.3976343 29.1905721,16.3978371 29.4378714,17.1599325 L30.812402,21.3957837 C31.0603585,22.1599043 31.8973619,22.620502 32.6689273,22.4277974 L32.3741728,22.5014147 C33.1515468,22.3072593 33.5757911,21.5226896 33.3308353,20.7767005 L29.4398038,8.92693791 C29.1907799,8.16855984 28.7833357,8.17089153 28.527432,8.93910925 L24.037792,22.4169171 C23.7829267,23.1820172 23.4028103,23.1656006 23.1947539,22.4021764 L17.4710387,1.40007682 C17.2603068,0.626835745 16.8624022,0.610723808 16.5813568,1.36661007 L10.5323055,17.63585 C10.2516796,18.3906079 9.65814047,18.4687421 9.20233079,17.8041447 L6.87956691,14.4174181 C6.42566803,13.7556067 5.57633529,13.6463451 4.96739808,14.186805 L0.454592304,18.192128 C-0.1475705,18.7265753 -0.136358672,19.5629654 0.491835475,20.0701075 L0.137328353,19.7839133 C0.760059991,20.2866455 1.76192906,20.2639292 2.17386807,19.9073392 L1.26488373,20.6941905 C1.76690192,20.2596244 2.66768742,19.4661491 3.25121161,18.9448147 L4.44323964,17.8798284 C5.03824004,17.3482409 5.89498593,17.4633821 6.34548954,18.1204557 L9.90167805,23.3072678 C10.3572613,23.9717501 10.9541243,23.8992778 11.2373765,23.1385005 L16.2068255,9.79122844 L16.2068255,9.79122844 Z" id="Y-3"></path>
                                </g>
                            </g>
                        </g>
                    </g>
                </g>
            </g>
        </g>
    </g>
</svg>

<svg width="34" height="32" viewBox="0 0 34 32" xmlns="http://www.w3.org/2000/svg"><title>white/icon-ui-heartrate-white</title><path d="M16.207 9.791c.282-.757.68-.746.895.04l5.842 21.49c.212.78.593.788.848.024l4.734-14.181c.256-.766.665-.766.912-.004l1.374 4.236a1.583 1.583 0 0 0 1.857 1.032l-.295.073a1.334 1.334 0 0 0 .957-1.724L29.44 8.927c-.25-.758-.657-.756-.913.012l-4.49 13.478c-.254.765-.634.749-.842-.015L17.47 1.4c-.21-.773-.609-.79-.89-.033l-6.049 16.269c-.28.755-.874.833-1.33.168L6.88 14.417c-.454-.661-1.304-.77-1.913-.23L.455 18.192c-.603.535-.591 1.371.037 1.878l-.355-.286c.623.503 1.625.48 2.037.123l-.91.787c.503-.434 1.404-1.228 1.987-1.75l1.192-1.064c.595-.532 1.452-.417 1.902.24l3.557 5.187c.455.665 1.052.592 1.335-.168l4.97-13.348z" fill="#FFF" fill-rule="evenodd"/></svg>
